X: 1
T: Maurice O'Keefe's
M: 2/4
L: 1/8
R: polka
K: Gmaj
bg d^c/2d/|eA A>^c|dc A/B/c/d/|ed d2|
bg d^c/2d/|eA A>^c|dc AF|G4:|
AB/^c/ d/e/f/g/|aa f2|gg e2|ff d2|
AB/^c/ d/e/f/g/|aa f2|gg e/g/f/e/|df d2:|
